X:1
T: We'll aye be fond o' Ingram
C:
R:Strathspey
Q: 128
K:A
M:4/4
L:1/16
F2|:EA3 A3E F3E A3E|FB3 B3F G3E e4|EA3 A3G G3F F3d|cA3 B3G A4 ((3A2G2F2)|
EA3 A3E F3E A3E|FB3 B3F G3E e4|EA3 A3G G3F F3d|cA3 B3G A4 ((3A2G2F2)|
c3A B3G A3B c3E|FB3 B3F G3E e3d|cBA2 BAG2 Aa3 e3d|c3A B3G A4 A3d|
cBA2 BAG2 A3B c3E|FB3 B3F G3E e3d|cde2 fga2 ((3e2d2c2) ((3B2c2d2) |c3A B3G A4 A4:|
